build/svg/cmd/lc_matchgroup.svg

<svg xmlns="http://www.w3.org/2000/svg" viewBox="0 0 24 24"><defs><linearGradient id="a"><stop offset="0" stop-color="#eeeeec"/><stop offset="1" stop-color="#e0e0de"/></linearGradient></defs><path d="M9 4C7 4 6 5 6 7v3c0 1-1 1-2 1.5v1C5 13 6 13 6 14v3c0 2 1 3 3 3h1v-2H9c-1 0-1 0-1-1v-3c0-1 0-1-1-2 1-1 1-1 1-2V7c0-1 0-1 1-1h1V4z" opacity=".6" stroke="#000" stroke-width="2" stroke-linejoin="round"/><path d="M9 4C7 4 6 5 6 7v3c0 1-1 1-2 1.5v1C5 13 6 13 6 14v3c0 2 1 3 3 3h1v-2H9c-1 0-1 0-1-1v-3c0-1 0-1-1-2 1-1 1-1 1-2V7c0-1 0-1 1-1h1V4z" fill="#fff"/><path d="M15 4c2 0 3 1 3 3v3c0 1 1 1 2 1.5v1c-1 .5-2 .5-2 1.5v3c0 2-1 3-3 3h-1v-2h1c1 0 1 0 1-1v-3c0-1 0-1 1-2-1-1-1-1-1-2V7c0-1 0-1-1-1h-1V4z" opacity=".6" stroke="#000" stroke-width="2" stroke-linejoin="round"/><path d="M15 4c2 0 3 1 3 3v3c0 1 1 1 2 1.5v1c-1 .5-2 .5-2 1.5v3c0 2-1 3-3 3h-1v-2h1c1 0 1 0 1-1v-3c0-1 0-1 1-2-1-1-1-1-1-2V7c0-1 0-1-1-1h-1V4z" fill="#fff"/></svg>

<?xml version="1.0" encoding="UTF-8" standalone="no"?>
<svg
   xmlns:dc="http://purl.org/dc/elements/1.1/"
   xmlns:cc="http://creativecommons.org/ns#"
   xmlns:rdf="http://www.w3.org/1999/02/22-rdf-syntax-ns#"
   xmlns:svg="http://www.w3.org/2000/svg"
   xmlns="http://www.w3.org/2000/svg"
   xmlns:xlink="http://www.w3.org/1999/xlink"
   xmlns:sodipodi="http://sodipodi.sourceforge.net/DTD/sodipodi-0.dtd"
   xmlns:inkscape="http://www.inkscape.org/namespaces/inkscape"
   viewBox="0 0 24 24"
   version="1.1"
   id="svg4"
   sodipodi:docname="lc_matchgroup.svg"
   inkscape:version="0.92.5 (2060ec1f9f, 2020-04-08)"
   inkscape:export-filename="/home/jupiter007/Libreoffice yaru theme fullcolor/build/cmd/lc_matchgroup.png"
   inkscape:export-xdpi="96"
   inkscape:export-ydpi="96">
  <metadata
     id="metadata10">
    <rdf:RDF>
      <cc:Work
         rdf:about="">
        <dc:format>image/svg+xml</dc:format>
        <dc:type
           rdf:resource="http://purl.org/dc/dcmitype/StillImage" />
      </cc:Work>
    </rdf:RDF>
  </metadata>
  <defs
     id="defs8">
    <linearGradient
       id="c"
       gradientUnits="userSpaceOnUse"
       x1="-20.846258"
       x2="-13.585115"
       xlink:href="#b"
       y1="3.2427361"
       y2="11.795373" />
    <linearGradient
       id="b">
      <stop
         offset="0"
         stop-color="#eeeeec"
         id="stop7" />
      <stop
         offset="1"
         stop-color="#e0e0de"
         id="stop9" />
    </linearGradient>
    <linearGradient
       id="d"
       gradientUnits="userSpaceOnUse"
       x1="3.6006529"
       x2="10.861796"
       xlink:href="#b"
       y1="3.2427361"
       y2="11.795373" />
  </defs>
  <sodipodi:namedview
     pagecolor="#ffffff"
     bordercolor="#666666"
     borderopacity="1"
     objecttolerance="10"
     gridtolerance="10"
     guidetolerance="10"
     inkscape:pageopacity="0"
     inkscape:pageshadow="2"
     inkscape:window-width="1920"
     inkscape:window-height="1011"
     id="namedview6"
     showgrid="true"
     inkscape:zoom="27.812867"
     inkscape:cx="3.078393"
     inkscape:cy="14.353305"
     inkscape:window-x="0"
     inkscape:window-y="32"
     inkscape:window-maximized="1"
     inkscape:current-layer="svg4">
    <inkscape:grid
       type="xygrid"
       id="grid827" />
  </sodipodi:namedview>
  <path
     id="path841"
     d="M 9,4 C 7,4 6,5 6,7 v 3 c 0,1 -1,1 -2,1.5 V 12 12.5 C 5,13 6,13 6,14 v 3 c 0,2 1,3 3,3 h 1 V 18 H 9 C 8,18 8,18 8,17 V 14 C 8,13 8,13 7,12 8,11 8,11 8,10 V 7 C 8,6 8,6 9,6 h 1 V 4 Z"
     style="opacity:0.6;fill:#000000;fill-opacity:1;stroke:#000000;stroke-width:2;stroke-linejoin:round;stroke-miterlimit:4;stroke-dasharray:none;stroke-opacity:1"
     inkscape:connector-curvature="0" />
  <path
     style="opacity:1;fill:#ffffff;fill-opacity:1;stroke:none;stroke-width:2;stroke-linejoin:round;stroke-miterlimit:4;stroke-dasharray:none;stroke-opacity:1"
     d="M 9,4 C 7,4 6,5 6,7 v 3 c 0,1 -1,1 -2,1.5 V 12 12.5 C 5,13 6,13 6,14 v 3 c 0,2 1,3 3,3 h 1 V 18 H 9 C 8,18 8,18 8,17 V 14 C 8,13 8,13 7,12 8,11 8,11 8,10 V 7 C 8,6 8,6 9,6 h 1 V 4 Z"
     id="rect859"
     inkscape:connector-curvature="0" />
  <path
     inkscape:connector-curvature="0"
     style="opacity:0.6;fill:#000000;fill-opacity:1;stroke:#000000;stroke-width:2;stroke-linejoin:round;stroke-miterlimit:4;stroke-dasharray:none;stroke-opacity:1"
     d="m 15,4 c 2,0 3,1 3,3 v 3 c 0,1 1,1 2,1.5 V 12 12.5 C 19,13 18,13 18,14 v 3 c 0,2 -1,3 -3,3 h -1 v -2 h 1 c 1,0 1,0 1,-1 v -3 c 0,-1 0,-1 1,-2 -1,-1 -1,-1 -1,-2 V 7 C 16,6 16,6 15,6 H 14 V 4 Z"
     id="path843" />
  <path
     inkscape:connector-curvature="0"
     id="path845"
     d="m 15,4 c 2,0 3,1 3,3 v 3 c 0,1 1,1 2,1.5 V 12 12.5 C 19,13 18,13 18,14 v 3 c 0,2 -1,3 -3,3 h -1 v -2 h 1 c 1,0 1,0 1,-1 v -3 c 0,-1 0,-1 1,-2 -1,-1 -1,-1 -1,-2 V 7 C 16,6 16,6 15,6 H 14 V 4 Z"
     style="opacity:1;fill:#ffffff;fill-opacity:1;stroke:none;stroke-width:2;stroke-linejoin:round;stroke-miterlimit:4;stroke-dasharray:none;stroke-opacity:1" />
</svg>
